!!!OTL: Suwugeng
!!!ARE: Asia, China,ÿQinghai, Dongbu)
!! I, 247
!!!SCT: C1435
!!!YEM: Copyright 1995, estate of Helmut Schaffrath.
**kern
*ICvox
*Ivox
*M2/4
*k[f#]
*G:
{8a
8a
8a
8dd
=1
4.cc
8b
=2
8a
8a
8a
8dd
=3
2cc}
=4
{8dd
4cc
8dd
=5
8ee
8aa
8gg
8ee
=6
8dd
8cc
8dd
8ee
=7
8dd
8cc
4a}
=8
{8a
8e
4a
=9
8a
4dd
8b
=10
4a
4g
=11
8a
16g
16f#
4e}
=12
{8a
8e
8.a
16b
=13
8g
16f#
16e
4d
=14
8e
16d
16e
8g
16f#
16e
=15
2d}
==
!!!AGN: Xiaodiao. Nannuqing
!!!ONB: ESAC (Essen Associative Code) Database: HUANG
!!!AMT: simple duple
!!!AIN: vox
!!!EED: Helmut Schaffrath
!!!EEV: 1.0
*-
